**kern	**kern
*staff2	*staff1
*clefF4	*clefG2
*k[]	*k[]
*M4/4	*M4/4
*C:	*C:
=	=
4.e	16ggLL
.	16cc
.	16g
.	16ccJJ
.	16ggLL
.	16cc
8d	16gg
.	16b-JJ
8c#L	16ggLL
.	16a
8B-	16gg
.	16ddJJ
8A	16ggLL
.	16cc#
8B-J	16gg
.	16ddJJ
=107	=107
16ALL	8eeL 8gg
16AA	.
16BB	8eee
16C#JJ	.
16DLL	8dd 8ff
16E	.
16F	8dddJ
16GJJ	.
16ALL	8cc#L 8ee
16G#	.
16A	8ccc#J
16B-JJ	.
16ALL	8r
16G	.
16F	16ddLL
16EJJ	16eeJJ
=108	=108
8D	16ffLL
.	16a
4d	16f
.	16aJJ
.	16ffLL
.	16a
8c	16ff
.	16a-JJ
8BL	16ffLL
.	16g
8A-	16ff
.	16ccJJ
8G	16ffLL
.	16b
8A-J	16ff
.	16ccJJ
=109	=109
16GLL	8ddL 8ff
16GG	.
16AA	8ddd
16BBJJ	.
16CLL	8cc 8ee
16D	.
16E	8cccJ
16F#JJ	.
16GLL	8bL 8dd
16F#	.
16G	8bbJ
16AJJ	.
16GLL	16r
16F	16bLL
16E	16cc
16DJJ	16ddJJ
=110	=110
8C	16eeLL
.	16cc
4c	16g
.	16ccJJ
.	16eeLL
.	16cc
8B	16ee
.	16ccJJ
8AL	16ffLL
.	16cc
8G	16ee
.	16bJJ
8F	16ddLL
.	16a
8EJ	16cc
.	16gJJ
=111	=111
8C	16eeLL
.	16cc
*clefG2	*
4c	16g
.	16ccJJ
.	16eeLL
.	16cc
8d	16ff
.	16ccJJ
8eL	16ggLL
.	16cc
8d#	16ff#
.	16ccJJ
8e	16ggLL
.	16cc
8eJ	16gg#
.	16ccJJ
=112	=112
8fL	16aaLL
.	16cc
8f	16dd
.	16ccJJ
8a	16ffLL
.	16cc
8aJ	16dd
.	16ccJJ
8gL	16eeLL
.	16cc
8g	16dd
.	16ccJJ
8G	16ddLL
.	16b
8GJ	16a
.	16bJJ
=113	=113
8c	8ccL
8r	16gL
.	16bJJ
4r	16aLL
.	16cc
.	16b
.	16ddJJ
2r	16ccLL
.	16ee
.	16dd
.	16ffJJ
.	16eeLL
.	16gg
.	16ff
.	16aaJJ
=114	=114
*-	*-
